!!!OTL: Heirathslust
!!!ARE: Europa, Mitteleuropa, Deutschland
!!!SCT: A0232B
!!!YEM: Copyright 1995, estate of Helmut Schaffrath.
**kern
*ICvox
*Ivox
*M4/4
*k[b-e-]
*g:
{4g
=1
4b-
4b-
4cc
4cc
=2
4dd
4dd
2dd}
=3
{8b-
8cc
4dd
8b-
8cc
4dd
=4
4cc
4b-
4a}
{4dd
=5
4dd
4a
4b-
4g
=6
4g
4g
2a}
=7
{4b-
4a
4g
4g
=8
4g
4f#
4g}
==
!!!AGN: Romanze, Ballade, Lied
!! M Franck, Fasc. quodl. 1611 No. 3
!!!ONB: ESAC (Essen Associative Code) Database: ALTDEU
!!!AMT: simple quadruple
!!!AIN: vox
!!!EED: Helmut Schaffrath
!!!EEV: 1.0
*-
